X: 22523
T: Lady Gethin
R: polka
M: 2/4
K: Amajor
|:cA Af|dB Be|cB/A/ G/A/B/F/|GE Ee/d/|
c/d/e/c/ Af/e/|d/e/f/d/ Be|d/c/B/A/ G/A/B/G/|A2 A2:|
|:CE AC|DF FE/D/|CE d/c/B/A/|GB Ec/d/|
ed/c/ fe/d/|e/d/c/d/ Be|d/c/B/A/ G/A/B/G/|A2 A2:|

